X: 16086
T: Green Fields Of Woodford, The
R: jig
M: 6/8
K: Amajor
f|:ecB A2F|FEF Ace|fec A2B|cff cff|
ecB cBA|FEF ABc|BAF BcB|1 AFE E2f:|2 AFE E2d]|
cAA eAA|fec ecB|cAA eAA|fec B3|
cAA eAA|fec ecB|ABc BcB|AFE E2d|
c2d eAA|fec ecB|cAA eAA|fec B3|
AB/c/d ef/g/a|baf ecB|ABc BcB|AFE E2||

